X: 4331
T: YONDER PILE BLAZING. (il Trovatore.)
%R: air, waltz
B: James Kerr "Merry Melodies" v.4 p.35 #331
Z: 2016 John Chambers <jc:trillian.mit.edu>
M: 3/4
L: 1/8
K: C
|:!f!\
e2 e2 e2 | e/f/e/f/ e4 | c2 c2 c2 | G/A/G/A/ G4 |\
[1 g2 g2 g2 | f/g/f/g/ f4 | d/e/d/e/ d2 e2 | c2 z2 z2 :|\
[2 g2 g2 ^g2 | a/^g/a/f/ d4 | f2 e2 d2 | c2 z2 z2 H|]
_e2 e2 e2 | d/_e/d/e/ d4 | c2 c2 c2 | _B/c/B/c/ B4 |\
g2 f2 _e2 | d/_e/d/e/ d4 | c2 _B2 A2 | GG/G/ A=Bc"_D.C."d |]

%%sep 1 1 500
%%sep 1 1 500

